X: 29
T: A Glint of Silver
T: Glint of Silver
C:Phil Cunningham
M:C
L:1/8
K:BMin
FB (3BBc dcBA| F2 EF DB,A,D| E3 e fedB| edef dBAE|
FBBc dcBA| FD (3EDC DB,A,D| B,E (3EEE FEDB,| A,B, (3B,B,B, DE (3EEE :||
FD (3DDD B,DA,D| FD (3DDD BDAD| Ee (3eee fedB| e3 f dBAg|
faec d2 cd| (3Bcd AF B3 A| FABc d2 cd| (3Bcd AG FE E2 :|

%%sep 2 1 500

